src/components/00-materials/images-raw/Elevator.svg

<svg width="96" height="96" viewBox="0 0 96 96" fill="none" xmlns="http://www.w3.org/2000/svg">
<path d="M79.25 10H16.75C13.5744 10 11 12.5744 11 15.75V80.25C11 83.4256 13.5744 86 16.75 86H79.25C82.4256 86 85 83.4256 85 80.25V15.75C85 12.5744 82.4256 10 79.25 10Z" stroke="#00008F" stroke-width="2" stroke-linecap="round" stroke-linejoin="round"/>
<path d="M30.5 28.7099H65.5C66.1286 28.7099 66.7314 28.9596 67.1758 29.4041C67.6203 29.8485 67.87 30.4514 67.87 31.0799V85.9999H28.12V31.0799C28.12 30.4514 28.3697 29.8485 28.8142 29.4041C29.2586 28.9596 29.8614 28.7099 30.49 28.7099H30.5ZM48 85.9999V28.7099V85.9999ZM32.8 15.6699H60.86V21.9499H32.8V15.6699ZM73.51 47.8299H79.31V53.7499H73.51V47.8299ZM73.51 41.8999H79.31V47.8199H73.51V41.8999Z" stroke="#00008F" stroke-width="2" stroke-linecap="round" stroke-linejoin="round"/>
</svg>

<svg width="96" height="96" viewBox="0 0 96 96" fill="none" xmlns="http://www.w3.org/2000/svg"><path d="M79.25 10h-62.5A5.75 5.75 0 0011 15.75v64.5A5.75 5.75 0 0016.75 86h62.5A5.75 5.75 0 0085 80.25v-64.5A5.75 5.75 0 0079.25 10z" stroke="#00008F" stroke-width="2" stroke-linecap="round" stroke-linejoin="round"/><path d="M30.5 28.71h35a2.37 2.37 0 012.37 2.37V86H28.12V31.08a2.37 2.37 0 012.37-2.37h.01zM48 86V28.71 86zM32.8 15.67h28.06v6.28H32.8v-6.28zm40.71 32.16h5.8v5.92h-5.8v-5.92zm0-5.93h5.8v5.92h-5.8V41.9z" stroke="#00008F" stroke-width="2" stroke-linecap="round" stroke-linejoin="round"/></svg>
